brandFactory_export/1.Light/Cerebro_1Light.svg

<?xml version="1.0" encoding="UTF-8"?>
<svg width="24px" height="24px" viewBox="0 0 24 24" version="1.1" xmlns="http://www.w3.org/2000/svg" xmlns:xlink="http://www.w3.org/1999/xlink">
    <title>1.Light/Cerebro_1Light</title>
    <g id="Symbols" stroke="none" stroke-width="1" fill="none" fill-rule="evenodd">
        <g id="1.Light/Cerebro_1Light" fill="#5CB615" fill-rule="nonzero">
            <path d="M20.8588235,10.9815126 C20.1697479,10.4705882 19.4,10.2521008 18.7478992,10.1680672 C18.8890756,9.6 18.6773109,9.04537815 18.2907563,8.65210084 C18.287395,8.6487395 18.210084,8.56806723 18.2067227,8.56806723 C17.9915966,8.35966387 17.6857143,8.39663866 17.4638655,8.60168067 C17.2453782,8.80672269 17.2789916,9.18655462 17.487395,9.40168067 C17.789916,9.71428571 17.692437,9.96638655 17.5680672,10.1277311 C17.5176471,10.1310924 17.4571429,10.1344538 17.4201681,10.1378151 C17.2890756,10.1512605 17.1378151,10.1680672 17.0033613,10.1882353 C16.8420168,10.2084034 16.6806723,10.2386555 16.5226891,10.2756303 C16.2302521,10.3361345 16.0420168,10.6218487 16.102521,10.9176471 C16.102521,10.9210084 16.102521,10.9243697 16.1058824,10.9277311 C16.1731092,11.2201681 16.4789916,11.4016807 16.7714286,11.3344538 C16.9260504,11.3008403 17.0605042,11.2806723 17.1579832,11.2672269 C17.2789916,11.2504202 17.4134454,11.2336134 17.5344538,11.2235294 C17.9848739,11.1731092 19.5378151,11.1092437 20.5428571,12.1680672 C21.4806723,13.3915966 21.5546218,15.0789916 21.5546218,15.5697479 C21.5546218,16.6756303 21.2521008,20.2588235 17.4033613,20.3226891 L17.3966387,20.3226891 C17.1042017,20.3596639 16.7848739,20.2285714 16.4386555,20.0067227 C16.0789916,19.7781513 15.8436975,19.5193277 15.7462185,19.2403361 C15.6420168,18.9546218 15.3294118,18.8067227 15.0403361,18.9008403 C14.7546218,18.9915966 14.6,19.2941176 14.6907563,19.5798319 C14.6907563,19.5831933 14.6941176,19.5865546 14.6941176,19.589916 C14.8722689,20.1008403 15.2554622,20.5512605 15.8302521,20.9142857 C16.0655462,21.0655462 16.3042017,21.1798319 16.5394958,21.2605042 C16.1327731,22.097479 15.4,22.5445378 14.307563,22.5445378 C12.9798319,22.5445378 12.492437,21.1865546 12.3983193,20.8806723 C12.4016807,20.6386555 12.405042,19.892437 12.3983193,19.707563 L12.3983193,3.92605042 C12.3983193,3.70084034 12.405042,2.85714286 12.4084034,2.57142857 C12.5361345,2.25882353 13.097479,1.08571429 14.3109244,1.08571429 C15.3966387,1.08571429 16.1294118,1.52941176 16.5361345,2.35966387 C15.6487395,2.66890756 15.0739496,3.40840336 14.8151261,4.13109244 L14.7378151,4.35630252 C14.6504202,4.64201681 14.8117647,4.94453782 15.097479,5.03193277 C15.1008403,5.03193277 15.1042017,5.03193277 15.1042017,5.03529412 C15.1579832,5.05210084 15.2151261,5.05882353 15.2689076,5.05882353 C15.5109244,5.05882353 15.7260504,4.90756303 15.8,4.67563025 L15.8638655,4.4907563 C15.994958,4.12773109 16.4554622,3.29747899 17.4134454,3.30084034 C21.2588235,3.31092437 21.5613445,6.94789916 21.5613445,8.06386555 C21.5512605,8.4907563 21.4941176,9.83529412 20.8588235,10.9815126 M9.3697479,22.5378151 C8.29411765,22.5378151 7.56470588,22.1042017 7.15462185,21.2907563 C7.42689076,21.210084 7.69915966,21.0857143 7.96806723,20.9109244 C8.54285714,20.5445378 8.92605042,20.097479 9.10420168,19.5865546 C9.20168067,19.3042017 9.05042017,18.9983193 8.76806723,18.9008403 C8.76470588,18.9008403 8.76134454,18.897479 8.75462185,18.897479 C8.46554622,18.8 8.15294118,18.9512605 8.0487395,19.2369748 C7.9512605,19.5159664 7.71932773,19.7747899 7.35630252,20.0067227 C7.01344538,20.2285714 6.6907563,20.3563025 6.40168067,20.3226891 C6.37815126,20.3226891 6.35798319,20.3327731 6.33781513,20.3361345 C6.31764706,20.3327731 6.29747899,20.3260504 6.27731092,20.3260504 C2.41848739,20.3260504 2.11596639,16.6823529 2.11596639,15.5630252 C2.11596639,15.1193277 2.18319328,13.7042017 2.8789916,12.5344538 C3.18823529,12.6789916 3.53445378,12.7865546 3.94453782,12.8201681 C3.98823529,12.8235294 4.02857143,12.8235294 4.07226891,12.8235294 C4.05210084,13.5798319 4.55294118,14.1277311 5.17815126,14.3663866 L5.28907563,14.4067227 C5.34621849,14.4268908 5.40336134,14.4369748 5.45714286,14.4369748 C5.67226891,14.4369748 5.85714286,14.2890756 5.94453782,14.0672269 C6.05210084,13.7882353 5.85714286,13.4621849 5.57478992,13.3546218 C5.1210084,13.1798319 5.14117647,12.8739496 5.19831933,12.6722689 C6.19663866,12.3226891 6.66722689,11.4352941 6.7512605,10.6016807 L6.76806723,10.4168067 C6.78823529,10.1142857 6.56302521,9.85546218 6.2605042,9.83193277 L6.25378151,9.83193277 C5.9512605,9.80504202 5.68571429,10.0268908 5.65882353,10.3294118 L5.64537815,10.5008403 C5.58151261,11.1193277 5.26554622,11.8453782 4.03865546,11.7344538 C3.62184874,11.7008403 3.3092437,11.5831933 3.0907563,11.405042 C2.18991597,10.1882353 2.11260504,8.54453782 2.11260504,8.06386555 C2.11260504,6.94789916 2.41512605,3.30084034 6.36806723,3.30084034 L6.37142857,3.30084034 C7.43697479,3.28067227 7.80336134,4.12436975 7.93445378,4.49411765 L7.99831933,4.6789916 C8.09243697,4.96806723 8.40168067,5.12941176 8.69411765,5.03865546 C8.98991597,4.9512605 9.1512605,4.64537815 9.0605042,4.35966387 L8.98319328,4.13781513 C8.71428571,3.38151261 8.10252101,2.60840336 7.14789916,2.33277311 C7.55798319,1.52268908 8.28739496,1.09243697 9.36302521,1.09243697 C10.6907563,1.09243697 11.1781513,2.45042017 11.2722689,2.75630252 C11.2689076,2.99831933 11.2621849,3.74453782 11.2722689,3.92941176 L11.2722689,19.697479 C11.2722689,19.9226891 11.2655462,20.7663866 11.2621849,21.0521008 C11.1445378,21.3647059 10.5831933,22.5378151 9.3697479,22.5378151 M22.6638655,8.0605042 C22.6638655,7.11260504 22.4252101,2.48067227 17.7092437,2.23193277 C17.1781513,0.789915966 15.9848739,0 14.3042017,0 C13.0537815,0 12.2773109,0.72605042 11.8268908,1.36134454 C11.3428571,0.655462185 10.5462185,0 9.3697479,0 C7.68907563,0 6.49579832,0.786554622 5.96470588,2.22184874 C1.25546218,2.42352941 1.01008403,7.10588235 1.01008403,8.06386555 C1.01008403,8.60168067 1.08739496,10.3663866 2.02857143,11.8084034 C1.0907563,13.2537815 1.01008403,15.0218487 1.01008403,15.5630252 C1.01008403,16.5109244 1.2487395,21.1428571 5.96470588,21.3915966 C6.49579832,22.8336134 7.68907563,23.6235294 9.37310924,23.6235294 C10.6201681,23.6235294 11.3966387,22.897479 11.8470588,22.2621849 C12.3310924,22.9680672 13.1310924,23.6235294 14.3042017,23.6235294 C15.9815126,23.6235294 17.1747899,22.8403361 17.7092437,21.4016807 C22.4218487,21.2033613 22.6638655,16.5176471 22.6638655,15.5630252 C22.6638655,15.0252101 22.5865546,13.2605042 21.6453782,11.8151261 C22.5865546,10.3697479 22.6638655,8.60168067 22.6638655,8.0605042" id="Cerebro_1Light"></path>
        </g>
    </g>
</svg>

<svg width="24" height="24" viewBox="0 0 24 24" xmlns="http://www.w3.org/2000/svg"><path d="M20.859 10.982c-.69-.511-1.459-.73-2.111-.814.141-.568-.07-1.123-.457-1.516-.004-.003-.08-.084-.084-.084-.215-.208-.521-.171-.743.034-.219.205-.185.585.023.8.303.312.205.564.081.726-.05.003-.11.006-.148.01-.13.013-.282.03-.417.05-.161.02-.322.05-.48.088a.542.542 0 00-.417.652.557.557 0 00.665.406 7.171 7.171 0 01.763-.11c.45-.05 2.004-.115 3.009.944.938 1.224 1.012 2.911 1.012 3.402 0 1.106-.303 4.689-4.152 4.753h-.006c-.293.037-.612-.094-.958-.316-.36-.229-.595-.488-.693-.767a.563.563 0 00-.706-.34.538.538 0 00-.35.68c0 .003.004.007.004.01.178.51.561.961 1.136 1.324.236.152.474.266.71.347-.407.836-1.14 1.284-2.232 1.284-1.328 0-1.816-1.358-1.91-1.664.004-.242.007-.989 0-1.173V3.926c0-.225.007-1.069.01-1.355.128-.312.69-1.485 1.903-1.485 1.086 0 1.818.443 2.225 1.274-.887.309-1.462 1.048-1.72 1.771l-.078.225a.541.541 0 00.366.68c.054.016.111.023.165.023a.553.553 0 00.531-.383l.064-.185c.131-.363.591-1.194 1.55-1.19 3.845.01 4.147 3.647 4.147 4.763-.01.427-.067 1.771-.702 2.918M9.369 22.538c-1.075 0-1.804-.434-2.214-1.247.272-.08.544-.205.813-.38.575-.366.958-.814 1.136-1.324a.54.54 0 00-.336-.686c-.003 0-.007-.004-.013-.004a.56.56 0 00-.706.34c-.098.279-.33.538-.693.77-.343.222-.665.35-.954.316-.024 0-.044.01-.064.013-.02-.003-.04-.01-.06-.01-3.86 0-4.162-3.644-4.162-4.763 0-.444.067-1.859.763-3.029.31.145.655.253 1.066.286.043.004.084.004.127.004-.02.756.48 1.304 1.106 1.542l.111.04c.057.02.114.031.168.031.215 0 .4-.148.488-.37.107-.279-.088-.605-.37-.712-.454-.175-.434-.481-.377-.683.999-.35 1.47-1.237 1.553-2.07l.017-.185a.549.549 0 00-.507-.585h-.007a.547.547 0 00-.595.497l-.014.172c-.063.618-.38 1.344-1.606 1.233-.417-.033-.73-.15-.948-.329-.901-1.217-.978-2.86-.978-3.341 0-1.116.302-4.763 4.255-4.763h.003c1.066-.02 1.432.823 1.563 1.193l.064.185c.094.29.404.45.696.36a.538.538 0 00.367-.68l-.078-.221c-.269-.756-.88-1.53-1.835-1.805.41-.81 1.14-1.24 2.215-1.24 1.328 0 1.815 1.357 1.91 1.663-.004.242-.01.989 0 1.173v15.768c0 .226-.007 1.07-.01 1.355-.118.313-.68 1.486-1.893 1.486M22.664 8.06c0-.948-.239-5.58-4.955-5.83C17.18.79 15.985 0 14.304 0c-1.25 0-2.027.726-2.477 1.361C11.343.655 10.547 0 9.37 0 7.69 0 6.496.787 5.965 2.222c-4.71.202-4.955 4.884-4.955 5.842 0 .538.077 2.302 1.019 3.744-.938 1.446-1.019 3.214-1.019 3.755 0 .948.239 5.58 4.955 5.829.53 1.442 1.724 2.232 3.408 2.232 1.247 0 2.024-.727 2.474-1.362.484.706 1.284 1.362 2.457 1.362 1.678 0 2.87-.784 3.405-2.222 4.713-.199 4.955-4.884 4.955-5.839 0-.538-.077-2.302-1.019-3.748.942-1.445 1.019-3.213 1.019-3.754" fill="#5CB615" fill-rule="nonzero"/></svg>
